X:1
T:Farther Along
M:3/4
L:1/4
K:D
 F AF/2-E/2| D3| F3| E D B,| D3| D3| F A B| A3| F3| D E F| E3-| E3-|\
 E3| F AF/2-E/2| D3| F3| E D B,| D3| D3| F A B| A3| F3| E F E| D3-|\
 D3| F A B| A3| F3| E D B,| D3| D3| F A B| A3| F3| D E F| E3-| E3-|\
 E3| F AF/2-E/2| D3| F3| E D B,| D3| D3| F A B| A3| F3| E F E| D3-|\
 D3|
